src/cmd/sc_fullscreen.svg

<svg viewBox="0 0 16 16" xmlns="http://www.w3.org/2000/svg">/&gt;<path d="m2 2v3l3-3zm9 0 3 3v-3zm-7 2v2.40625 4.78125.8125h8v-.8125-7.1875h-7.1875zm1 2h6v5h-6zm-3 5v3h3zm12 0-3 3h3z" fill="#232629"/></svg>

<?xml version="1.0" encoding="UTF-8" standalone="no"?>
<svg
   xmlns:dc="http://purl.org/dc/elements/1.1/"
   xmlns:cc="http://creativecommons.org/ns#"
   xmlns:rdf="http://www.w3.org/1999/02/22-rdf-syntax-ns#"
   xmlns:svg="http://www.w3.org/2000/svg"
   xmlns="http://www.w3.org/2000/svg"
   xmlns:sodipodi="http://sodipodi.sourceforge.net/DTD/sodipodi-0.dtd"
   xmlns:inkscape="http://www.inkscape.org/namespaces/inkscape"
   viewBox="0 0 16 16"
   version="1.1"
   id="svg4"
   sodipodi:docname="sc_fullscreen.svg"
   inkscape:version="0.92.5 (2060ec1f9f, 2020-04-08)"
   inkscape:export-filename="/home/jupiter007/Libreoffice yaru theme fullcolor/build/cmd/sc_fullscreen.png"
   inkscape:export-xdpi="95"
   inkscape:export-ydpi="95"><metadata
   id="metadata10">
  <rdf:RDF>
    <cc:Work
       rdf:about="">
      <dc:format>image/svg+xml</dc:format>
      <dc:type
         rdf:resource="http://purl.org/dc/dcmitype/StillImage" />
    </cc:Work>
  </rdf:RDF>
</metadata>
<defs
   id="defs8" />
<sodipodi:namedview
   pagecolor="#ffffff"
   bordercolor="#666666"
   borderopacity="1"
   objecttolerance="10"
   gridtolerance="10"
   guidetolerance="10"
   inkscape:pageopacity="0"
   inkscape:pageshadow="2"
   inkscape:window-width="1920"
   inkscape:window-height="1011"
   id="namedview6"
   showgrid="false"
   inkscape:zoom="41.7193"
   inkscape:cx="4.7725946"
   inkscape:cy="6.3927887"
   inkscape:window-x="0"
   inkscape:window-y="32"
   inkscape:window-maximized="1"
   inkscape:current-layer="svg4" />
/&gt;<path
   style="fill:#000000;stroke:#000000;opacity:0.6;stroke-width:2;stroke-miterlimit:4;stroke-dasharray:none;stroke-linejoin:round"
   id="path829"
   d="M 2,2 V 5 L 5,2 Z" />
<path
   style="fill:#000000;stroke:#000000;opacity:0.6;stroke-width:2;stroke-miterlimit:4;stroke-dasharray:none;stroke-linejoin:round"
   id="path831"
   d="m 11,2 3,3 V 2 Z" />
<path
   style="fill:#000000;stroke:#000000;opacity:0.6;stroke-width:2;stroke-miterlimit:4;stroke-dasharray:none;stroke-linejoin:round"
   id="path833"
   d="m 2,11 v 3 h 3 z" />
<path
   style="fill:#000000;stroke:#000000;opacity:0.6;stroke-width:2;stroke-miterlimit:4;stroke-dasharray:none;stroke-linejoin:round"
   id="path835"
   d="m 14,11 -3,3 h 3 z" />
<path
   d="M 2,2 V 5 L 5,2 Z"
   id="path827"
   style="fill:#ffffff" />
<path
   d="m 11,2 3,3 V 2 Z"
   id="path825"
   style="fill:#ffffff" />
<path
   d="M 4,4 V 6.40625 11.1875 12 h 8 V 11.1875 4 H 4.8125 Z"
   id="path823"
   style="fill:#6d6d6d;fill-opacity:1" />
<path
   d="m 5,6 h 6 v 5 H 5 Z"
   id="path821"
   style="fill:#ffffff" />
<path
   d="m 2,11 v 3 h 3 z"
   id="path819"
   style="fill:#ffffff" />
<path
   d="m 14,11 -3,3 h 3 z"
   id="path2"
   style="fill:#ffffff" />
</svg>
